projects/ccf-eui/src/assets/icons/organ-icons/organ-icon-heart.svg

<svg width="64" height="64" viewBox="0 0 64 64" fill="currentColor" xmlns="http://www.w3.org/2000/svg">
<g clip-path="url(#clip0_1795_250)">
<path d="M50.112 33.7707C50.112 33.7707 47.9787 24.9173 42.368 22.4853C40.7254 21.952 35.968 23.3387 38.848 30.3573C38.144 29.5253 35.4987 24.3627 37.7174 21.0347C38.4945 20.0244 39.4881 19.2011 40.6252 18.6252C41.7622 18.0493 43.0138 17.7355 44.288 17.7067C44.7517 17.7108 45.21 17.607 45.6266 17.4033C46.0431 17.1997 46.4066 16.9018 46.6881 16.5334C46.9696 16.1649 47.1615 15.736 47.2485 15.2805C47.3355 14.8251 47.3152 14.3556 47.1894 13.9093C46.72 10.6667 42.4747 11.1147 42.4747 11.1147C42.4747 11.1147 31.488 10.9013 28.864 18.1547C28.864 9.34399 40.128 9.30133 40.128 9.30133C40.128 6.57066 30.6774 4.88533 24.64 9.55733C16.512 15.8293 16.576 26.624 23.0827 34.816C21.2232 33.5705 19.6776 31.911 18.5672 29.9677C17.4567 28.0245 16.8117 25.8504 16.6827 23.616C15.616 24.9813 12.416 30.016 13.3547 39.1893C14.6987 53.056 44.16 64.1493 49.0027 57.1307C53.8454 50.112 50.112 33.7707 50.112 33.7707Z" />
<path d="M18.56 12.2453C17.8347 10.816 12.16 10.9227 12.16 12.5653V24.5973C13.1629 22.7084 14.5597 21.057 16.256 19.7547C16.3402 17.0908 17.1357 14.498 18.56 12.2453Z" />
</g>
<defs>
<clipPath id="clip0_1795_250">
<rect width="64" height="64" />
</clipPath>
</defs>
</svg>

<svg xmlns="http://www.w3.org/2000/svg" width="64" height="64" fill="currentColor" viewBox="0 0 64 64"><g clip-path="url(#a)"><path d="M50.112 33.77s-2.133-8.853-7.744-11.285c-1.643-.533-6.4.854-3.52 7.872-.704-.832-3.35-5.994-1.13-9.322a8.53 8.53 0 0 1 6.57-3.328 2.987 2.987 0 0 0 2.901-3.798c-.469-3.242-4.714-2.794-4.714-2.794s-10.987-.214-13.611 7.04c0-8.811 11.264-8.854 11.264-8.854 0-2.73-9.45-4.416-15.488.256-8.128 6.272-8.064 17.067-1.557 25.259a14.48 14.48 0 0 1-6.4-11.2c-1.067 1.365-4.267 6.4-3.328 15.573 1.344 13.867 30.805 24.96 35.648 17.942 4.842-7.019 1.109-23.36 1.109-23.36M18.56 12.245c-.725-1.429-6.4-1.322-6.4.32v12.032a14.9 14.9 0 0 1 4.096-4.842c.084-2.664.88-5.257 2.304-7.51"/></g><defs><clipPath id="a"><path d="M0 0h64v64H0z"/></clipPath></defs></svg>
